src/assets/icons/private.svg

<svg widh="100%" height="100%" viewBox="0 0 24 24" fill="current"
  xmlns="http://www.w3.org/2000/svg">
  <path d="M17.3333 9.33333H19.1111C19.3469 9.33333 19.573 9.42866 19.7397 9.59833C19.9064 9.76801 20 9.99814 20 10.2381V21.0952C20 21.3352 19.9064 21.5653 19.7397 21.735C19.573 21.9047 19.3469 22 19.1111 22H4.88889C4.65314 22 4.42705 21.9047 4.26035 21.735C4.09365 21.5653 4 21.3352 4 21.0952V10.2381C4 9.99814 4.09365 9.76801 4.26035 9.59833C4.42705 9.42866 4.65314 9.33333 4.88889 9.33333H6.66667V8.42857C6.66667 6.98882 7.22857 5.60805 8.22876 4.58999C9.22896 3.57194 10.5855 3 12 3C13.4145 3 14.771 3.57194 15.7712 4.58999C16.7714 5.60805 17.3333 6.98882 17.3333 8.42857V9.33333ZM15.5556 9.33333V8.42857C15.5556 7.46874 15.181 6.54822 14.5142 5.86952C13.8474 5.19081 12.943 4.80952 12 4.80952C11.057 4.80952 10.1526 5.19081 9.48584 5.86952C8.81905 6.54822 8.44444 7.46874 8.44444 8.42857V9.33333H15.5556ZM7.55556 12.0476V13.8571H9.33333V12.0476H7.55556ZM7.55556 14.7619V16.5714H9.33333V14.7619H7.55556ZM7.55556 17.4762V19.2857H9.33333V17.4762H7.55556Z"/>
</svg>

<svg xmlns="http://www.w3.org/2000/svg" fill="currentColor" viewBox="0 0 24 24">
  <path d="M17.333 9.333h1.778c.236 0 .462.096.629.265.166.17.26.4.26.64v10.857c0 .24-.094.47-.26.64a.881.881 0 0 1-.629.265H4.89a.881.881 0 0 1-.629-.265.913.913 0 0 1-.26-.64V10.238c0-.24.094-.47.26-.64a.881.881 0 0 1 .629-.265h1.778V8.43c0-1.44.562-2.821 1.562-3.839A5.286 5.286 0 0 1 12 3c1.415 0 2.771.572 3.771 1.59a5.478 5.478 0 0 1 1.562 3.839v.904Zm-1.777 0V8.43c0-.96-.375-1.88-1.042-2.56A3.524 3.524 0 0 0 12 4.81c-.943 0-1.847.382-2.514 1.06a3.652 3.652 0 0 0-1.042 2.56v.904h7.112Zm-8 2.715v1.81h1.777v-1.81H7.556Zm0 2.714v1.81h1.777v-1.81H7.556Zm0 2.714v1.81h1.777v-1.81H7.556Z"/>
</svg>
